packages/IonIcons/src/ScanSharpIcon/index.svg

<svg xmlns="http://www.w3.org/2000/svg" viewBox="0 0 512 512">
  <path d="M388 466h-68v-44h68a34 34 0 0034-34v-68h44v68a78.09 78.09 0 01-78 78zm78-274h-44v-68a34 34 0 00-34-34h-68V46h68a78.09 78.09 0 0178 78zM192 466h-68a78.09 78.09 0 01-78-78v-68h44v68a34 34 0 0034 34h68zM90 192H46v-68a78.09 78.09 0 0178-78h68v44h-68a34 34 0 00-34 34z"/>
</svg>

<svg xmlns="http://www.w3.org/2000/svg" width="512" height="512" viewBox="0 0 512 512"><title>ionicons-v5-k</title><path d="M388,466H320V422h68a34,34,0,0,0,34-34V320h44v68A78.09,78.09,0,0,1,388,466Z"/><path d="M466,192H422V124a34,34,0,0,0-34-34H320V46h68a78.09,78.09,0,0,1,78,78Z"/><path d="M192,466H124a78.09,78.09,0,0,1-78-78V320H90v68a34,34,0,0,0,34,34h68Z"/><path d="M90,192H46V124a78.09,78.09,0,0,1,78-78h68V90H124a34,34,0,0,0-34,34Z"/></svg>
